svgs/sharp-solid/shirt-tank-top.svg

<svg xmlns="http://www.w3.org/2000/svg" viewBox="0 0 384 512"><!--! Font Awesome Pro 6.6.0 by @fontawesome - https://fontawesome.com License - https://fontawesome.com/license (Commercial License) Copyright 2024 Fonticons, Inc. --><path d="M112 32l0-32L48 0l0 32 0 32 0 16 0 48L0 256 0 512l384 0 0-256L336 128l0-48 0-16 0-32 0-32L272 0l0 32 0 48c0 44.2-35.8 80-80 80s-80-35.8-80-80l0-48z"/></svg>

<svg xmlns="http://www.w3.org/2000/svg" viewBox="0 0 384 512"><!--! Font Awesome Pro 6.4.2 by @fontawesome - https://fontawesome.com License - https://fontawesome.com/license (Commercial License) Copyright 2023 Fonticons, Inc. --><path d="M112 32V0H48V32 64 80v48L0 256V512H384V256L336 128V80 64 32 0H272V32 80c0 44.2-35.8 80-80 80s-80-35.8-80-80V32z"/></svg>
